!!!COM: Schiørring, Niels
!!!CDT: 1743-1798
!!!OPR@@DA: Choral-Bog
!!!ONM: 32
!!!OTL@@DA: Hielp Gud, at jeg nu kunde
**kern	**fb	**kern	**kern	**kern	**kern	**kern	**kern	**kern
*part6	*part6	*part6	*part5	*part5	*part4	*part3	*part2	*part1
*staff8	*	*staff7	*staff6	*staff5	*staff4	*staff3	*staff2	*staff1
*clefF4	*	*clefC1	*clefF4	*clefC1	*clefF4	*clefC4	*clefC3	*clefC1
*	*	*	*	*	*	*Trd0c0	*	*
*k[b-]	*	*k[b-]	*k[b-]	*k[b-]	*k[b-]	*k[b-]	*k[b-]	*k[b-]
*F:	*	*F:	*F:	*F:	*F:	*F:	*F:	*F:
*M4/4	*	*M4/4	*M4/4	*M4/4	*M4/4	*M4/4	*M4/4	*M4/4
*met(c)	*	*met(c)	*met(c)	*met(c)	*met(c)	*met(c)	*met(c)	*met(c)
*	*	*	*^	*^	*^	*	*	*
2FF	.	2f	2ryy	2FF	2A	2c	2F	2FF	2a	2c	2f
=1	=1	=1	=1	=1	=1	=1	=1	=1	=1	=1	=1
2F	.	2a	2F	2F	2a	2f	2F	1r	2f	2c	2a
2E-X	2	2a	2c	2E-X	2a	2f	2E-X	.	2cc	2f	2a
=2	=2	=2	=2	=2	=2	=2	=2	=2	=2	=2	=2
2D	6	2b-	2B-	2D	2b-	2f	2D	1r	2dd	2f	2b-
2G	.	2b-	[2B-	2G	2b-	2d	2G	.	[2b-	2d	2b-
=3	=3	=3	=3	=3	=3	=3	=3	=3	=3	=3	=3
2E	6 5	1cc	2B-]	2E	1cc	2g	(2E	1r	(2b-]	(2g	1cc
2F	.	.	2A	2F	.	2f	2F)	.	2a)	2f)	.
=4	=4	=4	=4	=4	=4	=4	=4	=4	=4	=4	=4
2C	.	2cc	2G	2C	2cc	2e	2C	1r	2g	2e	2cc
2A	6	2cc	2c	2A	2cc	2f	2A	.	2cc	2f	2cc
=5	=5	=5	=5	=5	=5	=5	=5	=5	=5	=5	=5
2E	6	2cc	1c	2E	2cc	2g	2E	1r	2cc	2g	2cc
2F	.	2a	.	2F	2a	2f	2F	.	2cc	2f	2a
=6	=6	=6	=6	=6	=6	=6	=6	=6	=6	=6	=6
2BB-	.	2b-	2ryy@	2BB-	2d	2.f	2BB-	1r	2dd	[2f	2b-
2C	4	2g	4c	2C	2g	.	2C	.	(4cc	(4f]	2g
=	=	=	=	=	=	=	=	=	=	=	=
2FF	3	2f	2ryy	2FF	2A	2c	2F	2FF	2a	2f	2f
*	*	*	*	*	*	*	*v	*v	*	*	*
=7:|!	=7:|!	=7:|!	=7:|!	=7:|!	=7:|!	=7:|!	=7:|!	=7:|!	=7:|!	=7:|!
2F	.	2cc	2A	2F	2cc	2a	2F	2a	2f	2cc
=8	=8	=8	=8	=8	=8	=8	=8	=8	=8	=8
2E	6	2cc	1c	2E	2cc	2g	2E	2cc	2g	2cc
2C	7	2b-	.	2C	2b-	2e	2C	2cc	2e	2b-
=9	=9	=9	=9	=9	=9	=9	=9	=9	=9	=9
2F	.	2a	2c	2F	2a	2f	2F	2cc	2f	2a
2C#X	5	2g	2A	2C#X	2g	2e	2C#X	2a	2e	2g
=10	=10	=10	=10	=10	=10	=10	=10	=10	=10	=10
2D	.	2f	2A	2D	2f	1d	2D	2a	2d	2f
2BB-	6	2g	2ryy@	2BB-	2d	.	2BB-	2dd	2d	2g
=11	=11	=11	=11	=11	=11	=11	=11	=11	=11	=11
2AA	#	2a	1ryy	2AA	2c#X	2e	2AA	2cc#X	2e	2a
2AA	6 n	2cc	.	2AA	2cn	2f	2AA	2ccn	2f	2cc
=12	=12	=12	=12	=12	=12	=12	=12	=12	=12	=12
2BB-	.	2dd	2B-	2BB-	2dd	2f	2BB-	2b-	2f	2dd
4C	.	2cc	2G	4C	2cc	4e	(4C	2g	(4e	2cc
4D	.	.	.	4D	.	4f	4D)	.	4f)	.
=13	=13	=13	=13	=13	=13	=13	=13	=13	=13	=13
2E	6	2cc	2G	2E	2cc	2g	2E	2g	2g	2cc
2F	.	2a	2c	2F	2a	2f	2F	2cc	2f	2a
=14	=14	=14	=14	=14	=14	=14	=14	=14	=14	=14
2E	6	(2cc	2c	2E	2cc	1g	(2E	(2cc	1g	(2cc
2C	7	2b-)	2ryy@	2C	2e	.	2C)	2ee)	.	2b-)
=15	=15	=15	=15	=15	=15	=15	=15	=15	=15	=15
2D	.	2a	1ryy	2D	2f	2f	2D	2ff	2f	2a
2G	.	2b-	.	2G	2d	2g	2G	2dd	2g	2b-
=16	=16	=16	=16	=16	=16	=16	=16	=16	=16	=16
2D	6	2cc	1ryy	2D	1c	2g	2D	2cc	2g	2cc
2F	.	2a	.	2F	.	2f	2F	2cc	2f	2a
=17	=17	=17	=17	=17	=17	=17	=17	=17	=17	=17
2BB-	.	2b-	2ryy@	2BB-	2d	2.f	2BB-	2dd	[2f	2b-
2C	4	2g	4c	2C	2g	.	2C	(4cc	(4f]	2g
=18	=18	=18	=18	=18	=18	=18	=18	=18	=18	=18
*	*	*	*	*	*	*	*^	*	*	*
2FF	3	2f	1ryy	2FF	2A	2c	2F	2FF	2a	2f	2f
*	*	*	*v	*v	*	*	*v	*v	*	*	*
*	*	*	*	*v	*v	*	*	*	*
==	==	==	==	==	==	==	==	==
*-	*-	*-	*-	*-	*-	*-	*-	*-
!!!system-decoration: {(s1,s2,s3,s4)}{(s5,s6)}{(s7,s8)}
!!!RDF**kern: i = editorial accidental
!!!AGN: chorale
!!!EED: Derek Remeš
!!!EED2: Victor Phan
!!!END: 2023/11/28
!!!ENC: Wolfgang Drescher
!!!EEV: 2023/11/28
!!!title: @{ONM}. @{OTL}